X: 37352
T: Slängpols Från Torp
R: mazurka
M: 3/4
K: Gmajor
|:B>G D>E F>G|A>F G<B E2|e>c B>A D>E|F>B d<g G2|
B>G D>E F>G|A>F G<B E2|e>c B>A D>E|F<B d2 D2:|
|:g>e d>G B,>D|E>G A<D F2|e>c B>A D>E|F>B d<g G2|
g>e d>G B,>D|E>G A<D F2|e>c B>A D>E|F<B d2 D2:|

